resources/svg/regular/comment-detail.svg

<svg xmlns="http://www.w3.org/2000/svg" fill="currentColor" stroke="none" viewBox="0 0 24 24"><path d="M7 7h10v2H7zm0 4h7v2H7z"/><path d="M20 2H4c-1.103 0-2 .897-2 2v18l5.333-4H20c1.103 0 2-.897 2-2V4c0-1.103-.897-2-2-2zm0 14H6.667L4 18V4h16v12z"/></svg>

<svg xmlns="http://www.w3.org/2000/svg" fill="currentColor" stroke="none" viewBox="0 0 24 24"><path d="M7 7H17V9H7zM7 11H14V13H7z"/><path d="M20,2H4C2.897,2,2,2.897,2,4v18l5.333-4H20c1.103,0,2-0.897,2-2V4C22,2.897,21.103,2,20,2z M20,16H6.667L4,18V4h16V16z"/></svg>
